X: 9
T: Little Katie Taylor
C: Paddy Taylor
M: 4/4
L: 1/8
R: hornpipe
K: D Major
B A>F |:\
D2 F>A G>EA>F | (3DDD F>A d2 e>f | g>ea>g f>dc>d | A>BA>G E>F (3GFE |
D2 (3FGA G>EA>F | D2 F>A d2 e>f | g>ea>g f>d (3dcd |[1 e>d (3ddc d>BA>F :|[2 e>dd>c d3 e ||
f>da>f g2 a>g | f>dA>F (3GGG A>g | f>dc>A G>BE>G | A>B (3cBA d>cA>g | 
f>d (3fga g>ea>g | f>dA>F E2 A>g | f>dc>A G>B (3EFG | A>Bc>A dcdg | 
f>dA>f g>eA>g | f>dA>F G>BA>g | f>dc>A G>EF>G | A2 (3cBA d>cA>F | 
D>EF>A G2 (3AGF | (3DED (3FGA d2 (3def | g2 a>g f2 (3dcd | (3efe d>c d |]
